X: 033
T: Lord Bath's Gate
B: 204 Favourite Country Dances
N: Published by Straight & Skillern, London ca.1775
F: http://imslp.org/wiki/204_Favourite_Country_Dances_(Various) p.17 #33
Z: 2014 John Chambers <jc:trillian.mit.edu>
M: 2/4
L: 1/16
K: D
% - - - - - - - - - - - - - - - - - - - - - - - - -
|:\
.d2.D2 .A2.D2 | .B2.D2.A2.D2 | .d2.D2 .A2.D2 | .G2.D2.F2.D2 |\
.d2.A2 .f2.A2 | .e2.A2 .a2.A2 | (f3e/d/) c2B2 | A2A,2 A,4 :|
|:\
.e2z2 .f2z2 | .g2z2 .e2z2 | (fga2) a2a2 | a2z2 z4 |\
.e2z2 .f2z2 | .g2z2 .e2z2 | f2d2e2c2 | {c}d4 D4 :|
|:\
d2f2a2d2 | .e2.e2f2z2 | (d2f2)(a2d2) | (.e2.e2f2) z2 |\
(g2g4f2) | (b2b4a2) | (g3f/e/) d2c2 | d4D4 :|
% - - - - - - - - - - - - - - - - - - - - - - - - -
%%begintext align
%% Right hands cross round .| D.o left back
%% again :| the Allemand round to the right :|.
%% cast off 1 Cu. & D.o to the left :|: lead thro'
%% the 3d & 1st Cu.s .:|:.
%%endtext

%%sep 1 1 500
%%sep 1 1 500
